X:162
U: ~ = !turn!
%%topmargin 3cm
T:Patsy McCann's
B:Traditional Irish Fiddle Tunes. Randy Miller and Jack Perron.
Z:Transcribed by Ralph Palmer
R:Jig
L:1/8
M:6/8
K:D
B | AFD DFA | ~B3 BAF | ABA F2 D | FEE E2 B |
AFD DFA | ~B3 BdB | ABA F2 E | FDD D2 ::
e | fdd dcd | fdd d2 e | fdd def | ~g3 eag |
fed [D2B2] d | [D2A2] d F2 B | ABA F2 E | FDD D2 :|]
